packages/foundations/assets/icons/functional/images/layout/grid_24_filled.svg

<svg xmlns="http://www.w3.org/2000/svg" width="20" height="20" fill="none"><path fill="#1A1C1F" fill-rule="evenodd" d="M3.712 3.036c-.283.083-.598.405-.678.691-.021.078-.034.915-.034 2.28 0 2.12.001 2.16.071 2.347.085.227.297.453.522.557.155.072.18.072 2.337.082 2.444.01 2.395.014 2.697-.225a.9.9 0 0 0 .261-.324l.095-.194V3.717l-.098-.178a1.07 1.07 0 0 0-.461-.447l-.141-.075-2.233-.006c-1.285-.003-2.278.007-2.338.025m7.978.012a1 1 0 0 0-.626.617c-.061.161-.064.277-.064 2.334 0 2.128.001 2.168.071 2.355.085.227.297.453.522.557.155.072.18.072 2.337.082 2.444.01 2.395.014 2.697-.225a.9.9 0 0 0 .261-.324l.095-.194V3.717l-.098-.178a1.07 1.07 0 0 0-.461-.447l-.141-.075-2.233-.008c-1.82-.006-2.257.001-2.36.039M3.683 11.06a.93.93 0 0 0-.484.347c-.205.283-.202.231-.192 2.663l.01 2.213.075.141a1.1 1.1 0 0 0 .455.47l.17.089h4.566l.172-.09a1.05 1.05 0 0 0 .478-.55C8.998 16.171 9 16.085 9 14s-.002-2.171-.067-2.343a1 1 0 0 0-.492-.547l-.191-.093-2.2-.008c-2.022-.007-2.214-.003-2.367.051m8 0a.93.93 0 0 0-.484.347c-.205.283-.202.231-.192 2.663l.01 2.213.075.141a1.1 1.1 0 0 0 .455.47l.17.089h4.566l.17-.089a1.1 1.1 0 0 0 .455-.47l.075-.141.01-2.221c.009-2.164.007-2.226-.059-2.403a.99.99 0 0 0-.493-.549l-.191-.093-2.2-.008c-2.022-.007-2.214-.003-2.367.051"/></svg>

<svg width="20" height="20" viewBox="0 0 20 20" fill="none" xmlns="http://www.w3.org/2000/svg"><path d="M3.712 3.036 C 3.429 3.119,3.114 3.441,3.034 3.727 C 3.013 3.805,3.000 4.642,3.000 6.007 C 3.000 8.127,3.001 8.167,3.071 8.354 C 3.156 8.581,3.368 8.807,3.593 8.911 C 3.748 8.983,3.773 8.983,5.930 8.993 C 8.374 9.003,8.325 9.007,8.627 8.768 C 8.739 8.680,8.824 8.574,8.888 8.444 L 8.983 8.250 8.983 5.983 L 8.983 3.717 8.885 3.539 C 8.775 3.341,8.634 3.204,8.424 3.092 L 8.283 3.017 6.050 3.011 C 4.765 3.008,3.772 3.018,3.712 3.036 M11.690 3.048 C 11.388 3.156,11.179 3.363,11.064 3.665 C 11.003 3.826,11.000 3.942,11.000 5.999 C 11.000 8.127,11.001 8.167,11.071 8.354 C 11.156 8.581,11.368 8.807,11.593 8.911 C 11.748 8.983,11.773 8.983,13.930 8.993 C 16.374 9.003,16.325 9.007,16.627 8.768 C 16.739 8.680,16.824 8.574,16.888 8.444 L 16.983 8.250 16.983 5.983 L 16.983 3.717 16.885 3.539 C 16.775 3.341,16.634 3.204,16.424 3.092 L 16.283 3.017 14.050 3.009 C 12.230 3.003,11.793 3.010,11.690 3.048 M3.683 11.060 C 3.468 11.134,3.318 11.242,3.199 11.407 C 2.994 11.690,2.997 11.638,3.007 14.070 L 3.017 16.283 3.092 16.424 C 3.205 16.636,3.358 16.794,3.547 16.894 L 3.717 16.983 6.000 16.983 L 8.283 16.983 8.455 16.893 C 8.668 16.780,8.846 16.576,8.933 16.343 C 8.998 16.171,9.000 16.085,9.000 14.000 C 9.000 11.915,8.998 11.829,8.933 11.657 C 8.842 11.414,8.670 11.223,8.441 11.110 L 8.250 11.017 6.050 11.009 C 4.028 11.002,3.836 11.006,3.683 11.060 M11.683 11.060 C 11.468 11.134,11.318 11.242,11.199 11.407 C 10.994 11.690,10.997 11.638,11.007 14.070 L 11.017 16.283 11.092 16.424 C 11.205 16.636,11.358 16.794,11.547 16.894 L 11.717 16.983 14.000 16.983 L 16.283 16.983 16.453 16.894 C 16.642 16.794,16.795 16.636,16.908 16.424 L 16.983 16.283 16.993 14.062 C 17.002 11.898,17.000 11.836,16.934 11.659 C 16.842 11.414,16.671 11.223,16.441 11.110 L 16.250 11.017 14.050 11.009 C 12.028 11.002,11.836 11.006,11.683 11.060 " fill="#1A1C1F" stroke="none" fill-rule="evenodd"></path></svg>
